packages/core/assets/Icons/ohm.svg

<svg viewBox="0 0 20 20" fill="none" xmlns="http://www.w3.org/2000/svg">
<path d="M10 4.16669C8.72222 4.16669 7.63889 4.61113 6.75 5.50002C5.86111 6.38891 5.41667 7.47224 5.41667 8.75002C5.41667 9.62502 5.64583 10.4306 6.10417 11.1667C6.5625 11.9028 7.1875 12.4653 7.97917 12.8542C8.3125 13.0209 8.59375 13.2465 8.82292 13.5313C9.05208 13.816 9.16667 14.1389 9.16667 14.5V16.25C9.16667 16.5972 9.04514 16.8924 8.80208 17.1354C8.55903 17.3785 8.26389 17.5 7.91667 17.5H3.75C3.40278 17.5 3.10764 17.3785 2.86458 17.1354C2.62153 16.8924 2.5 16.5972 2.5 16.25C2.5 15.9028 2.62153 15.6077 2.86458 15.3646C3.10764 15.1215 3.40278 15 3.75 15H6.66667C5.5 14.375 4.58333 13.507 3.91667 12.3959C3.25 11.2847 2.91667 10.0695 2.91667 8.75002C2.91667 6.7778 3.60417 5.10419 4.97917 3.72919C6.35417 2.35419 8.02778 1.66669 10 1.66669C11.9722 1.66669 13.6458 2.35419 15.0208 3.72919C16.3958 5.10419 17.0833 6.7778 17.0833 8.75002C17.0833 10.0695 16.75 11.2847 16.0833 12.3959C15.4167 13.507 14.5 14.375 13.3333 15H16.25C16.5972 15 16.8924 15.1215 17.1354 15.3646C17.3785 15.6077 17.5 15.9028 17.5 16.25C17.5 16.5972 17.3785 16.8924 17.1354 17.1354C16.8924 17.3785 16.5972 17.5 16.25 17.5H12.0833C11.7361 17.5 11.441 17.3785 11.1979 17.1354C10.9549 16.8924 10.8333 16.5972 10.8333 16.25V14.5C10.8333 14.1389 10.9479 13.816 11.1771 13.5313C11.4062 13.2465 11.6875 13.0209 12.0208 12.8542C12.8125 12.4653 13.4375 11.9028 13.8958 11.1667C14.3542 10.4306 14.5833 9.62502 14.5833 8.75002C14.5833 7.47224 14.1389 6.38891 13.25 5.50002C12.3611 4.61113 11.2778 4.16669 10 4.16669Z" fill="currentColor"/>
</svg>

<svg xmlns="http://www.w3.org/2000/svg" width="20" height="20" fill="none" viewBox="0 0 20 20">
  <path fill="#201F1F" d="M10 4.167c-1.278 0-2.361.444-3.25 1.333-.889.889-1.333 1.972-1.333 3.25 0 .875.229 1.68.687 2.417a4.5 4.5 0 0 0 1.875 1.687c.333.167.615.393.844.677a1.5 1.5 0 0 1 .344.969v1.75c0 .347-.122.642-.365.885a1.205 1.205 0 0 1-.885.365H3.75c-.347 0-.642-.122-.885-.365a1.205 1.205 0 0 1-.365-.885c0-.347.122-.642.365-.885.243-.244.538-.365.885-.365h2.917a6.993 6.993 0 0 1-2.75-2.604 6.956 6.956 0 0 1-1-3.646c0-1.972.687-3.646 2.062-5.02C6.354 2.353 8.028 1.666 10 1.666s3.646.687 5.02 2.062c1.376 1.375 2.063 3.049 2.063 5.021 0 1.32-.333 2.535-1 3.646A6.992 6.992 0 0 1 13.333 15h2.917c.347 0 .642.121.885.365.243.243.365.538.365.885s-.122.642-.365.885a1.205 1.205 0 0 1-.885.365h-4.167c-.347 0-.642-.122-.885-.365a1.206 1.206 0 0 1-.365-.885V14.5c0-.361.115-.684.344-.969.23-.285.51-.51.844-.677a4.499 4.499 0 0 0 1.875-1.687 4.484 4.484 0 0 0 .687-2.417c0-1.278-.444-2.361-1.333-3.25-.889-.889-1.972-1.333-3.25-1.333Z"/>
</svg>
